rospo-icon-theme-classic-common/24x24/apps/oracle-sqldeveloper.svg

<svg height="24" viewBox="0 0 24 24" width="24" xmlns="http://www.w3.org/2000/svg"><path d="m12.000113 12.500113a9.9998872 4.9999436 0 0 0 -9.9998876 4.999943 9.9998872 4.9999436 0 0 0 9.9998876 4.999944 9.9998872 4.9999436 0 0 0 9.999887-4.999944 9.9998872 4.9999436 0 0 0 -9.999887-4.999943z" opacity=".2"/><path d="m12.000113 12.000118a9.9998872 4.9999436 0 0 0 -9.9998876 4.999944 9.9998872 4.9999436 0 0 0 9.9998876 4.999944 9.9998872 4.9999436 0 0 0 9.999887-4.999944 9.9998872 4.9999436 0 0 0 -9.999887-4.999944z" fill="#696969"/><path d="m12.000113 7.5001692a9.9998872 4.9999436 0 0 0 -9.9998876 4.9999438 9.9998872 4.9999436 0 0 0 9.9998876 4.999943 9.9998872 4.9999436 0 0 0 9.999887-4.999943 9.9998872 4.9999436 0 0 0 -9.999887-4.9999438z" opacity=".2"/><path d="m12.000113 7.0001749a9.9998872 4.9999436 0 0 0 -9.9998876 4.9999431 9.9998872 4.9999436 0 0 0 9.9998876 4.999944 9.9998872 4.9999436 0 0 0 9.999887-4.999944 9.9998872 4.9999436 0 0 0 -9.999887-4.9999431z" fill="#919191"/><path d="m12.000113 2.5002256a9.9998872 4.9999436 0 0 0 -9.9998876 4.9999436 9.9998872 4.9999436 0 0 0 9.9998876 4.9999438 9.9998872 4.9999436 0 0 0 9.999887-4.9999438 9.9998872 4.9999436 0 0 0 -9.999887-4.9999436z" opacity=".2"/><path d="m12.000113 2.0002313a9.9998872 4.9999436 0 0 0 -9.9998876 4.9999436 9.9998872 4.9999436 0 0 0 9.9998876 4.9999431 9.9998872 4.9999436 0 0 0 9.999887-4.9999431 9.9998872 4.9999436 0 0 0 -9.999887-4.9999436z" fill="#e4e4e4"/><path d="m11.999887 2.0002313a9.9998872 4.9999436 0 0 0 -9.9998869 4.9999436 9.9998872 4.9999436 0 0 0  .0205076.2089821 9.9998872 4.9999436 0 0 1 9.9793793-4.7089314 9.9998872 4.9999436 0 0 1 9.97938 4.7958444 9.9998872 4.9999436 0 0 0  .020507-.2958951 9.9998872 4.9999436 0 0 0 -9.999887-4.9999436z" fill="#fff" opacity=".2"/><circle cx="18.5" cy="18" opacity=".2" r="5.5"/><circle cx="18.5" cy="17.5" fill="#0ab884" r="5.5"/><path d="m20.907793 18.137032-2.165063 1.25-2.165064 1.25v-2.500001-2.5l2.165064 1.250001z" fill="#fff" transform="matrix(.92376041 0 0 1 1.686208 -.637032)"/></svg>

<svg xmlns="http://www.w3.org/2000/svg" width="24" height="24" version="1.1" viewBox="0 0 24 24">
 <path style="opacity:0.2" d="M 12.000113,12.500113 A 9.9998872,4.9999436 0 0 0 2.0002254,17.500056 9.9998872,4.9999436 0 0 0 12.000113,22.5 9.9998872,4.9999436 0 0 0 22,17.500056 9.9998872,4.9999436 0 0 0 12.000113,12.500113 Z"/>
 <path style="fill:#696969" d="M 12.000113,12.000118 A 9.9998872,4.9999436 0 0 0 2.0002254,17.000062 9.9998872,4.9999436 0 0 0 12.000113,22.000006 9.9998872,4.9999436 0 0 0 22,17.000062 9.9998872,4.9999436 0 0 0 12.000113,12.000118 Z"/>
 <path style="opacity:0.2" d="M 12.000113,7.5001692 A 9.9998872,4.9999436 0 0 0 2.0002254,12.500113 9.9998872,4.9999436 0 0 0 12.000113,17.500056 9.9998872,4.9999436 0 0 0 22,12.500113 9.9998872,4.9999436 0 0 0 12.000113,7.5001692 Z"/>
 <path style="fill:#919191" d="M 12.000113,7.0001749 A 9.9998872,4.9999436 0 0 0 2.0002254,12.000118 9.9998872,4.9999436 0 0 0 12.000113,17.000062 9.9998872,4.9999436 0 0 0 22,12.000118 9.9998872,4.9999436 0 0 0 12.000113,7.0001749 Z"/>
 <path style="opacity:0.2" d="M 12.000113,2.5002256 A 9.9998872,4.9999436 0 0 0 2.0002254,7.5001692 9.9998872,4.9999436 0 0 0 12.000113,12.500113 9.9998872,4.9999436 0 0 0 22,7.5001692 9.9998872,4.9999436 0 0 0 12.000113,2.5002256 Z"/>
 <path style="fill:#cccccc" d="M 12.000113,2.0002313 A 9.9998872,4.9999436 0 0 0 2.0002254,7.0001749 9.9998872,4.9999436 0 0 0 12.000113,12.000118 9.9998872,4.9999436 0 0 0 22,7.0001749 9.9998872,4.9999436 0 0 0 12.000113,2.0002313 Z"/>
 <path style="opacity:0.2;fill:#ffffff" d="M 11.999887,2.0002313 A 9.9998872,4.9999436 0 0 0 2.0000001,7.0001749 9.9998872,4.9999436 0 0 0 2.0205077,7.209157 9.9998872,4.9999436 0 0 1 11.999887,2.5002256 9.9998872,4.9999436 0 0 1 21.979267,7.29607 9.9998872,4.9999436 0 0 0 21.999774,7.0001749 9.9998872,4.9999436 0 0 0 11.999887,2.0002313 Z"/>
 <circle cx="18.5" cy="18" r="5.5" style="opacity:0.2"/>
 <circle style="fill:#0ab884" cx="18.5" cy="17.5" r="5.5"/>
 <path style="fill:#ffffff" d="m 20.907793,18.137032 -2.165063,1.25 -2.165064,1.25 0,-2.500001 0,-2.5 2.165064,1.250001 z" transform="matrix(0.92376041,0,0,1,1.6862083,-0.63703161)"/>
</svg>
